icon-themes/breeze_svg/cmd/32/diagramaxisy.svg

<svg viewBox="0 0 32 32" xmlns="http://www.w3.org/2000/svg"><path d="m6 4v21h-2v1h2v2h1v-2h21v-1h-21v-21z" fill="#4d4d4d"/><path d="m3 6v17h1v-17z" fill="#1d99f3"/></svg>

<svg xmlns="http://www.w3.org/2000/svg" viewBox="0 0 32 32">
 <path 
     style="fill:#4d4d4d" 
     d="M 6 4 L 6 25 L 4 25 L 4 26 L 6 26 L 6 28 L 7 28 L 7 26 L 28 26 L 28 25 L 7 25 L 7 4 L 6 4 z "
     />
 <path 
     style="fill:#1d99f3" 
     d="M 3 6 L 3 23 L 4 23 L 4 6 L 3 6 z "
     />
</svg>
